static/img/cam-server/ico-header-camera.svg

<svg width="28" height="28" viewBox="0 0 28 28" fill="none" xmlns="http://www.w3.org/2000/svg">
<rect x="0.5" y="0.5" width="27" height="27" rx="3.5" fill="white" stroke="#DDDDDD"/>
<path d="M22.5 11V13.5C22.5 18.1944 18.6944 22 14 22C9.30558 22 5.5 18.1944 5.5 13.5V11H22.5Z" fill="#3C4968" stroke="black"/>
<path d="M7 11.5H21V12.5H7V11.5Z" fill="#749EFF"/>
<path d="M14.0024 14.6108C14.6824 14.6109 15.2886 14.8657 15.7681 15.3452C16.2475 15.8247 16.5024 16.4309 16.5024 17.1108C16.5024 17.7908 16.2476 18.397 15.7681 18.8765C15.2886 19.356 14.6824 19.6108 14.0024 19.6108C13.3225 19.6108 12.7163 19.3559 12.2368 18.8765C11.7573 18.397 11.5025 17.7908 11.5024 17.1108C11.5024 16.4309 11.7573 15.8247 12.2368 15.3452C12.7163 14.8657 13.3225 14.6108 14.0024 14.6108Z" stroke="black" stroke-width="2"/>
<path d="M14.0024 15.1108C14.5483 15.1109 15.0278 15.3119 15.4146 15.6987C15.8013 16.0855 16.0024 16.565 16.0024 17.1108C16.0024 17.6567 15.8013 18.1362 15.4146 18.5229C15.0278 18.9097 14.5483 19.1108 14.0024 19.1108C13.4566 19.1108 12.9771 18.9097 12.5903 18.5229C12.2035 18.1362 12.0025 17.6567 12.0024 17.1108C12.0024 16.565 12.2035 16.0855 12.5903 15.6987C12.9771 15.3119 13.4566 15.1108 14.0024 15.1108Z" fill="#003CFF" stroke="#00DCFF"/>
<path d="M23.5 8V10C23.5 10.5523 23.0523 11 22.5 11H5.5C4.94772 11 4.5 10.5523 4.5 10V8H23.5Z" fill="white" stroke="black"/>
<circle cx="23" cy="9" r="2.5" fill="#00CB21" stroke="#007D14"/>
</svg>

<svg xmlns="http://www.w3.org/2000/svg" width="28" height="28" fill="none" viewBox="0 0 28 28"><rect width="27" height="27" x=".5" y=".5" fill="#fff" stroke="#ddd" rx="3.5"/><path fill="#3c4968" stroke="#000" d="M22.5 11v2.5a8.5 8.5 0 0 1-17 0V11z"/><path fill="#749eff" d="M7 11.5h14v1H7z"/><path stroke="#000" stroke-width="2" d="M14.002 14.61c.68 0 1.287.256 1.766.735.48.48.734 1.086.734 1.766s-.254 1.286-.734 1.765c-.48.48-1.086.735-1.766.735s-1.286-.255-1.765-.735a2.44 2.44 0 0 1-.735-1.765c0-.68.255-1.286.735-1.766a2.44 2.44 0 0 1 1.765-.734Z"/><path fill="#003cff" stroke="#00dcff" d="M14.002 15.11c.546 0 1.026.202 1.413.589.386.386.587.866.587 1.412s-.2 1.025-.587 1.412a1.94 1.94 0 0 1-1.413.588 1.94 1.94 0 0 1-1.412-.588 1.94 1.94 0 0 1-.588-1.412c0-.546.201-1.026.588-1.412a1.94 1.94 0 0 1 1.412-.588Z"/><path fill="#fff" stroke="#000" d="M23.5 8v2a1 1 0 0 1-1 1h-17a1 1 0 0 1-1-1V8z"/><circle cx="23" cy="9" r="2.5" fill="#00cb21" stroke="#007d14"/></svg>
